brandFactory_export/3.Masa/Buscar analizar virus _3Masa.svg

<?xml version="1.0" encoding="UTF-8"?>
<svg width="24px" height="24px" viewBox="0 0 24 24" version="1.1" xmlns="http://www.w3.org/2000/svg" xmlns:xlink="http://www.w3.org/1999/xlink">
    <title>3.Masa/Buscar analizar virus _3Masa</title>
    <g id="Symbols" stroke="none" stroke-width="1" fill="none" fill-rule="evenodd">
        <g id="3.Masa/Buscar-analizar-virus-_3Masa" fill="#5CB615" fill-rule="nonzero">
            <path d="M14.2554622,10.2554622 L14.2554622,9.35798319 C14.2554622,9.00840336 13.9697479,8.72605042 13.6201681,8.72605042 L12.8537815,8.72605042 C12.8067227,8.20840336 12.702521,7.70084034 12.5109244,7.24705882 L13.5092437,6.94789916 C13.7882353,6.86386555 13.9764706,6.60168067 13.9596639,6.31260504 L13.8857143,4.96134454 C13.8655462,4.61512605 13.5596639,4.38319328 13.2168067,4.36638655 C12.8672269,4.38319328 12.5983193,4.6789916 12.6151261,5.02857143 L12.6621849,5.88907563 L12.1378151,6.04705882 C12.1512605,5.94957983 12.1613445,5.85546218 12.1613445,5.74789916 C12.1613445,3.76470588 10.2184874,3.76470588 9.38823529,3.76470588 C8.55798319,3.76470588 6.61512605,3.76470588 6.61512605,5.74789916 C6.61512605,5.85882353 6.62857143,5.95630252 6.64201681,6.05714286 L6.08403361,5.88907563 L6.13109244,5.02857143 C6.14789916,4.6789916 5.8789916,4.38319328 5.52941176,4.36638655 C5.2,4.35966387 4.88067227,4.61176471 4.8605042,4.96134454 L4.78655462,6.31260504 C4.77310924,6.60504202 4.95798319,6.86722689 5.23697479,6.9512605 L6.25882353,7.25714286 C6.06722689,7.70756303 5.96638655,8.21176471 5.91596639,8.72941176 L5.14957983,8.72941176 C4.8,8.72941176 4.51428571,9.00840336 4.51428571,9.35798319 L4.51428571,10.2554622 C4.51428571,10.605042 4.8,10.8840336 5.14957983,10.8840336 C5.49915966,10.8840336 5.78487395,10.605042 5.78487395,10.2554622 L5.78487395,9.98991597 L5.87226891,9.98991597 C5.8789916,10.6285714 5.92941176,11.2504202 6.07731092,11.805042 L5.23361345,12.0571429 C4.95462185,12.1411765 4.76638655,12.4067227 4.78319328,12.6957983 L4.85714286,14.0436975 C4.87731092,14.3798319 5.15630252,14.6420168 5.49243697,14.6420168 L5.52941176,14.6420168 C5.8789916,14.6252101 6.14789916,14.3260504 6.13109244,13.9798319 L6.08403361,13.1226891 L6.62857143,12.9579832 C7.14285714,13.6201681 7.98991597,14.0403361 9.38487395,14.0403361 C10.7731092,14.0403361 11.6201681,13.6235294 12.1344538,12.9647059 L12.6588235,13.1226891 L12.6117647,13.9798319 C12.594958,14.3294118 12.8638655,14.6252101 13.2134454,14.6420168 L13.2504202,14.6420168 C13.5865546,14.6420168 13.8655462,14.3831933 13.8857143,14.0436975 L13.9596639,12.692437 C13.9731092,12.4 13.7882353,12.1378151 13.5092437,12.0537815 L12.6890756,11.8084034 C12.8403361,11.2504202 12.8907563,10.6285714 12.8941176,9.98655462 L12.9815126,9.98655462 L12.9815126,10.2521008 C12.9815126,10.6016807 13.2672269,10.8806723 13.6201681,10.8806723 C13.9697479,10.887395 14.2554622,10.605042 14.2554622,10.2554622 L14.2554622,10.2554622 Z M23.4084034,22.3798319 C23.6941176,22.6621849 23.6941176,23.1193277 23.4151261,23.4016807 L23.4084034,23.4084034 C23.1226891,23.6941176 22.6588235,23.6941176 22.3697479,23.4084034 L15.3781513,16.4773109 C13.6907563,17.8655462 11.5731092,18.6218487 9.39159664,18.6184874 C4.20168067,18.6184874 0,14.4504202 0,9.30756303 C0,4.16806723 4.20168067,0 9.38823529,0 C14.5747899,0 18.7764706,4.16806723 18.7764706,9.30756303 C18.7764706,11.5764706 17.9394958,13.7680672 16.4235294,15.4588235 C16.4268908,15.4588235 23.4084034,22.3798319 23.4084034,22.3798319 Z M7.89579832,5.75798319 L7.89579832,5.73781513 C7.89579832,5.3210084 7.89579832,5.01848739 9.39495798,5.01848739 C10.3327731,5.01848739 10.6857143,5.13613445 10.8168067,5.32773109 C10.897479,5.44201681 10.897479,5.58319328 10.897479,5.73781513 L10.8941176,5.75798319 L7.89579832,5.75798319 L7.89579832,5.75798319 Z M9.98655462,11.7142857 L9.98655462,8.35294118 C9.98655462,8.00336134 9.70084034,7.72436975 9.3512605,7.72436975 C9.00168067,7.72436975 8.71596639,8.00336134 8.71596639,8.35294118 L8.71596639,11.7142857 C8.71596639,12.0638655 9.00168067,12.3462185 9.3512605,12.3462185 C9.70084034,12.3462185 9.98655462,12.0638655 9.98655462,11.7142857 Z M10.9142857,7.15966387 C11.4117647,7.53277311 11.6268908,8.31932773 11.6268908,9.78823529 C11.6268908,12.1344538 11.1462185,12.7764706 9.39159664,12.7764706 C7.63697479,12.7764706 7.15630252,12.1344538 7.15630252,9.78823529 C7.15630252,8.32605042 7.36470588,7.5394958 7.85882353,7.16638655 C8.18151261,6.9210084 8.68235294,6.80336134 9.39159664,6.80336134 C10.0907563,6.80336134 10.5915966,6.9210084 10.9142857,7.15966387 Z" id="Buscar-analizar-virus-_3Masa"></path>
        </g>
    </g>
</svg>

<svg width="24" height="24" viewBox="0 0 24 24" xmlns="http://www.w3.org/2000/svg"><path d="M14.255 10.255v-.897a.634.634 0 00-.635-.632h-.766c-.047-.518-.151-1.025-.343-1.479l.998-.3a.63.63 0 00.45-.634l-.073-1.352c-.02-.346-.326-.578-.67-.595a.632.632 0 00-.6.663l.046.86-.524.158c.013-.097.023-.192.023-.3 0-1.982-1.943-1.982-2.773-1.982-.83 0-2.773 0-2.773 1.983 0 .11.014.208.027.31l-.558-.169.047-.86a.632.632 0 00-.602-.663c-.329-.006-.648.246-.668.595l-.074 1.352a.634.634 0 00.45.638l1.022.306c-.192.45-.293.955-.343 1.472H5.15a.631.631 0 00-.636.629v.897c0 .35.286.629.636.629.35 0 .635-.279.635-.629V9.99h.087c.007.639.057 1.26.205 1.815l-.843.252a.633.633 0 00-.45.639l.073 1.348c.02.336.3.598.635.598h.037a.634.634 0 00.602-.662l-.047-.857.545-.165c.514.662 1.36 1.082 2.756 1.082 1.388 0 2.235-.416 2.75-1.075l.524.158-.047.857a.632.632 0 00.601.662h.037a.634.634 0 00.636-.598l.074-1.352a.634.634 0 00-.45-.638l-.82-.246c.15-.558.2-1.18.204-1.821h.088v.265c0 .35.285.629.638.629a.624.624 0 00.635-.626zm9.153 12.125c.286.282.286.74.007 1.022l-.007.006a.736.736 0 01-1.038 0l-6.992-6.93a9.402 9.402 0 01-5.986 2.14C4.202 18.618 0 14.45 0 9.308 0 4.168 4.202 0 9.388 0c5.187 0 9.388 4.168 9.388 9.308 0 2.268-.837 4.46-2.352 6.15.003 0 6.984 6.922 6.984 6.922zM7.896 5.758v-.02c0-.417 0-.72 1.499-.72.938 0 1.29.118 1.422.31.08.114.08.255.08.41l-.003.02H7.896zm2.09 5.956V8.353a.631.631 0 00-.635-.629.631.631 0 00-.635.629v3.361c0 .35.286.632.635.632.35 0 .636-.282.636-.632zm.928-4.554c.498.373.713 1.16.713 2.628 0 2.346-.48 2.988-2.235 2.988s-2.236-.642-2.236-2.988c0-1.462.209-2.249.703-2.622.323-.245.823-.363 1.533-.363.699 0 1.2.118 1.522.357z" fill="#5CB615" fill-rule="nonzero"/></svg>
